svg/icon/omni.svg

<svg xmlns="http://www.w3.org/2000/svg" xmlns:xlink="http://www.w3.org/1999/xlink" width="32" height="32" viewBox="0 0 32 32"><defs><linearGradient id="omni-c" x1="50%" x2="50%" y1="0%" y2="100%"><stop offset="0%" stop-color="#FFF" stop-opacity=".5"/><stop offset="100%" stop-opacity=".5"/></linearGradient><circle id="omni-b" cx="16" cy="15" r="15"/><filter id="omni-a" width="111.7%" height="111.7%" x="-5.8%" y="-4.2%" filterUnits="objectBoundingBox"><feOffset dy=".5" in="SourceAlpha" result="shadowOffsetOuter1"/><feGaussianBlur in="shadowOffsetOuter1" result="shadowBlurOuter1" stdDeviation=".5"/><feComposite in="shadowBlurOuter1" in2="SourceAlpha" operator="out" result="shadowBlurOuter1"/><feColorMatrix in="shadowBlurOuter1" values="0 0 0 0 0 0 0 0 0 0 0 0 0 0 0 0 0 0 0.199473505 0"/></filter><path id="omni-e" d="M10.0645918,5.88765616 C8.79031025,6.71956165 7.70379,7.80839966 6.87459983,9.08445301 L6.87459983,5.88765616 L10.0645918,5.88765616 Z M25.0691337,8.99881822 C24.2471261,7.75934306 23.180789,6.70068378 21.9354082,5.88765616 L25.0691337,5.88765616 L25.0691337,8.99881822 Z M21.9813562,24.0821821 C23.207149,23.2730245 24.2573361,22.2251723 25.0692219,21.0011818 L25.0692219,24.0821821 L21.9813562,24.0821821 Z M6.87459983,20.9156352 C7.69375859,22.1761479 8.76413699,23.2541268 10.0188202,24.0821821 L6.87459983,24.0821821 L6.87459983,20.9156352 Z M26,15.0000441 C26,20.5140953 21.5139387,25 16,25 C10.4860613,25 6,20.5140953 6,15.0000441 C6,9.48599285 10.4859731,5 16,5 C21.5140269,5 26,9.48599285 26,15.0000441 Z M16,22.2919652 C20.0207604,22.2919652 23.2919772,19.020734 23.2919772,15.0000441 C23.2919772,10.9791778 20.0207604,7.70794657 16,7.70794657 C11.9791514,7.70794657 8.70802282,10.9791778 8.70802282,15.0000441 C8.70802282,19.020734 11.9791514,22.2919652 16,22.2919652 Z"/><filter id="omni-d" width="117.5%" height="117.5%" x="-8.8%" y="-6.2%" filterUnits="objectBoundingBox"><feOffset dy=".5" in="SourceAlpha" result="shadowOffsetOuter1"/><feGaussianBlur in="shadowOffsetOuter1" result="shadowBlurOuter1" stdDeviation=".5"/><feColorMatrix in="shadowBlurOuter1" values="0 0 0 0 0 0 0 0 0 0 0 0 0 0 0 0 0 0 0.204257246 0"/></filter></defs><g fill="none" fill-rule="evenodd"><use fill="#000" filter="url(#omni-a)" xlink:href="#omni-b"/><use fill="#1C347A" xlink:href="#omni-b"/><use fill="url(#omni-c)" style="mix-blend-mode:soft-light" xlink:href="#omni-b"/><circle cx="16" cy="15" r="14.5" stroke="#000" stroke-opacity=".097"/><g fill-rule="nonzero"><use fill="#000" filter="url(#omni-d)" xlink:href="#omni-e"/><use fill="#FFF" fill-rule="evenodd" xlink:href="#omni-e"/></g></g></svg>

<svg xmlns="http://www.w3.org/2000/svg" xmlns:xlink="http://www.w3.org/1999/xlink" width="32" height="32" viewBox="0 0 32 32"><defs><linearGradient id="c" x1="50%" x2="50%" y1="0%" y2="100%"><stop offset="0%" stop-color="#FFF" stop-opacity=".5"/><stop offset="100%" stop-opacity=".5"/></linearGradient><circle id="b" cx="16" cy="15" r="15"/><filter id="a" width="111.7%" height="111.7%" x="-5.8%" y="-4.2%" filterUnits="objectBoundingBox"><feOffset dy=".5" in="SourceAlpha" result="shadowOffsetOuter1"/><feGaussianBlur in="shadowOffsetOuter1" result="shadowBlurOuter1" stdDeviation=".5"/><feComposite in="shadowBlurOuter1" in2="SourceAlpha" operator="out" result="shadowBlurOuter1"/><feColorMatrix in="shadowBlurOuter1" values="0 0 0 0 0 0 0 0 0 0 0 0 0 0 0 0 0 0 0.199473505 0"/></filter><path id="e" d="M10.065 5.888a10.93 10.93 0 0 0-3.19 3.196V5.888h3.19zm15.004 3.11a10.93 10.93 0 0 0-3.134-3.11h3.134v3.11zm-3.088 15.084a10.933 10.933 0 0 0 3.088-3.08v3.08h-3.088zM6.875 20.916a10.93 10.93 0 0 0 3.144 3.166H6.875v-3.166zM26 15c0 5.514-4.486 10-10 10S6 20.514 6 15 10.486 5 16 5s10 4.486 10 10zm-10 7.292c4.02 0 7.292-3.271 7.292-7.292 0-4.02-3.271-7.292-7.292-7.292-4.02 0-7.292 3.271-7.292 7.292 0 4.02 3.271 7.292 7.292 7.292z"/><filter id="d" width="117.5%" height="117.5%" x="-8.8%" y="-6.2%" filterUnits="objectBoundingBox"><feOffset dy=".5" in="SourceAlpha" result="shadowOffsetOuter1"/><feGaussianBlur in="shadowOffsetOuter1" result="shadowBlurOuter1" stdDeviation=".5"/><feColorMatrix in="shadowBlurOuter1" values="0 0 0 0 0 0 0 0 0 0 0 0 0 0 0 0 0 0 0.204257246 0"/></filter></defs><g fill="none" fill-rule="evenodd"><use fill="#000" filter="url(#a)" xlink:href="#b"/><use fill="#1C347A" xlink:href="#b"/><use fill="url(#c)" style="mix-blend-mode:soft-light" xlink:href="#b"/><circle cx="16" cy="15" r="14.5" stroke="#000" stroke-opacity=".097"/><g fill-rule="nonzero"><use fill="#000" filter="url(#d)" xlink:href="#e"/><use fill="#FFF" fill-rule="evenodd" xlink:href="#e"/></g></g></svg>
